X: 7
T: Hava Narima (See the Conq'ring Hero Comes)
Z: Gideon Klionsky
M: 4/4
L: 1/4
%R: march
Q: 1/4=130
K: G
C: Levin Kipnis (words), G. F. Handel (music)
%
"G" d2B>c | d2G2 | "D7" (A/B/c/d/) c "G"B | "D"A4 | "G" (B/c/d/e/) dd | g2 d2 | "Am" (c B/A/) "D" A>G | "G"G4 :|
"G" (B/A/B/c/) BB | "D"A2 "Em"G2 | "Am" (cBAG) | "B"F4 | "Em" (G/F/G/A/) GG | "A"e2 ^c2 | "Bm" d e/d/ "A"^c>d | "D"d2- "D7"d2||
"G" d2B>c | d2G2 | "D7" (A/B/c/d/) c "G"B | "D"A4 | "G" (B/c/d/e/) dd | g2 d2 | "Am"  (c B/A/) "D" A>G | "G"G4 |]
W:הָבָה נָרִימָה נֵס וַאֲבוּקָה, יַחַד פֹּה נָשִׁירָה שִׁיר-הַחֲנֻכָּה
W:מַכַּבִּים אֲנַחְנוּ, דִּגְלֵנוּ רָם, נָכוֹן, בַּיְּוָנִים נִלְחַמְנוּ וְלָנוּ הַנִּצָּחוֹן
W:פֶּרַח אֶל פֶּרַח זֵר גָּדוֹל נִשְׁזֹר, לְרֹאשׁ הַמְּנַצֵּחַ, מַכַּבִּי גִּבּוֹר
W:
W:Háva naríma nes va’avuka
W:Yáḥad po nashíra shir ha-Ḥanukah
W:Makkabim anáḥnu, digléinu ram, nakhon
W:BaYavanim nilḥámnu v’lánu hanitzaḥon
W:Péraḥ el péraḥ zer gadol nishzor
W:L’rosh ham’natzéi’aḥ, Makkabi gibbor

